X: 2
T: Hills of Glenurchie
I: Hills of Glenurchie	J-31	Em	jig
%%musicspace	0.0cm
M: 6/8
R: jig
K: Em
d| "Em"BGE EFE| BAB d2B| "D"AFD DED| AFA ded|
   "Em"BGE EFE| BAB d2e| "D"dBd AFD| "Em"EFE E2:|
|:B| "Em"efe edB| efg "A"gfe| "D"ded dAB| def fed|
   "Em"efe edB| efg "A7"gfe| "D"dBd AFD| "Em"EFE E2:|
%%scale .5
%%text Roaring Jelly  J-31

